!!!COM: Scarlatti, Domenico
!!!CDT: 1685///-1757///
!!!OTL: Sonata in C Major, K.384, L.2
!!!SCT: K. 384
!!!SCT: L. 002
!!!OMD: Cantabile andante
**kern	**kern	**dynam
*staff2	*staff1	*staff1
*Icemba	*Icemba	*Icemba
*>[A,A,B,B]	*>[A,A,B,B]	*>[A,A,B,B]
*>norep[A,B]	*>norep[A,B]	*>norep[A,B]
*>A	*>A	*>A
*clefF4	*clefG2	*clefG2
*k[]	*k[]	*k[]
*C:	*C:	*C:
*met(c)	*met(c)	*met(c)
*M4/4	*M4/4	*M4/4
*MM104	*MM104	*MM104
=1-	=1-	=1-
4r	(12e/L	p
.	12g/	.
.	(12cc/J)	.
*clefG2	*	*
4cc\	12ee\L	.
.	12ff\	.
.	12gg\J)	>
(4cc\	4ee\	)
4g/)	4dd\	)
=2	=2	=2
4r	12e/L	)
.	(12g/	)
.	12cc/J	)
4cc\	12ee\L	)
.	12ff\	)
.	12gg\J	]
(4cc\	4ee\	>
4g/)	4dd\)	)
=3	=3	=3
4r	(12ee\L	)
.	12dd\	)
.	12cc\J)	)
4e/	(4cc\	)
4f/	12dd\L	)
.	12cc\	)
.	12b\J)	)
4g/	(4b\	]
*clefF4	*	*
=4	=4	=4
*^	*	*
(12E/L	4r	2cc\)	mf
12G/	.	.	.
12c/J	.	.	.
12e/L	4c\	.	.
12f/	.	.	.
12g/J	.	.	.
4e/	4c\	4r	.
4d/)	4G\	4gg\	p
=5	=5	=5	=5
12E/L	4r	2gg\	.
12G/	.	.	.
12c/J	.	.	.
12e/L	4c\	.	.
12f/	.	.	.
12g/J	.	.	.
4e/	4c\	4r	.
4d/	4G\	(4gg\	.
=6	=6	=6	=6
4r	4E\ 4c\	12ccc\L	mf
.	.	12gg\	.
.	.	12ee\J	.
4e/	4E\ [4c\	12cc\L	.
.	.	12dd\	.
.	.	12ee\J	.
2d/	4F\ 4c\]	2dd\	.
.	4G\ 4B\	.	.
*v	*v	*	*
=7	=7	=7
4C\ 4c\	4cc\)	.
4c\ 4e\	(12gg\L	p
.	12ee\	.
.	[12g\J	.
4c\ 4f\	4g/]	.
4c\ 4f\	4a/	.
=8	=8	=8
4c\ 4e\	4g/)	.
4c\ 4e\	(12ee/L	.
.	12cc/	.
.	[12e/J	.
4G\ 4c\ 4d\	4e/]	.
4G\ 4d\	4f/	.
=9	=9	=9
4c\	4e/)	.
4c\ 4e\	(12gg\L	pp
.	12ee\	.
.	[12g\J	.
4c\ 4f\	4g/]	.
4c\ 4f\	4a/	.
=10	=10	=10
4c\ 4e\	4g/)	.
4c\ 4e\	(12ee\L	.
.	12cc\	.
.	[12e\J	.
4G\ 4c\ 4d\	4e/]	.
4G\ 4d\	4f/	.
=11	=11	=11
4c\	4e/	.
.	(ddq/)	.
(4c\ 4g\	(32cc\LLL)	mf
.	32b\	.
.	32cc\	.
.	32dd\JJ	.
.	8ee\J)	.
4B\) 4g\	(12dd\L	.
.	12aa\	.
.	12gg\J)	.
(4B\ 4g\	4gg\	.
=12	=12	=12
4A\) 4g\	4r	.
.	bq/	.
4A\ (4c\	32a\LLL	.
.	32g\	.
.	32a\	.
.	32b\JJ	.
.	8cc\J	.
4G\ 4d\)	12b\L	.
.	12aa\	.
.	12gg\J	.
4G\ (4d\	4gg\	.
=13	=13	=13
4c\ 4e\)	4r	.
.	ddq/	.
(4c\ 4g\	32cc\LLL	p
.	32b\	.
.	32cc\	.
.	32dd\JJ	.
.	8ee\J	.
4B\) 4g\	12dd\L	.
.	12aa\	.
.	12gg\J	.
(4B\ 4g\	4gg\	.
=14	=14	=14
4A\) 4g\	4r	.
.	bq/	.
4A\ (4c\	32a\LLL	pp
.	32g\	.
.	32a\	.
.	32b\JJ	.
.	8cc\J	.
4G\ 4d\)	12b\L	.
.	12aa\	.
.	12gg\J	.
4G\ 4d\	4gg\	.
=15	=15	=15
4r	12d/L	p
.	12d/	.
.	12d/J	.
(4F#\ 4c\	12d/L	.
.	12d/	.
.	12d/J	.
4G\) 4c\	12d/L	>
.	12d/	)
.	12d/J	)
4G\ 4B\	12d/L	)
.	12d/	)
.	12d/J	)
=16	=16	=16
4r	12d/L	)
.	12d/	)
.	12d/J	)
4F#\ 4c\	12d/L	)
.	12d/	)
.	12d/J	]
4G\ 4c\	12d/L	>
.	12d/	)
.	12d/J	)
4G\ 4B\	12d/L	)
.	12d/	)
.	(12d/J	]
=17	=17	=17
4C/	12e/L	<
.	12f#/	(
.	12g/J	(
4c\ 4e\	12a\L	(
.	12b\	(
.	12cc\J	(
4c\ 4d\	12dd\L	(
.	12ee\	(
.	12ff#\J	(
4B\ 4d\	12gg\L	(
.	12aa\	(
.	12bb\J	[
=18	=18	=18
4A\ 4c\	12ccc\L	mf
.	12cc\)	.
.	12cc\J	.
4G\ 4c\	12cc\L	.
.	12cc\	.
.	12cc\J	.
4F#\ 4c\	12cc\L	.
.	12cc\	.
.	12cc\J	.
4E\ 4G\	12cc\L	<
.	(12cc\	(
.	12cc#\J	[
=19	=19	=19
*^	*^	*
2A/	4D\	4dd/	12dd\L)	mf
.	.	.	12d\	.
.	.	.	12d\J	.
.	4C\	2dd/	12d\L	.
.	.	.	12d\	.
.	.	.	12d\J	.
4G/	4BB\	.	12d\L	.
.	.	.	12d\	.
.	.	.	12d\J	.
4F#/	4AA\	4cc/	(12d\L	.
.	.	.	12e\	.
.	.	.	12f#\J)	.
*v	*v	*	*	*
*	*v	*v	*
=20	=20	=20
.	ccq/	.
4GG\ 4G\	(32b\LLL	.
.	32a\	.
.	32b\	.
.	32cc\JJ	.
.	8dd\J)	.
.	(ff#q/	.
4C\ (4c\	(32ee\LLL)	.
.	32dd\	.
.	32ee\	.
.	32ff#\JJ	.
.	[8gg\J)	.
4D\ 4B\)	(12gg\L]	.
.	12b\	.
.	[12dd\J	.
4D\ (4A\	12dd/L]	.
.	12a/	.
.	12f#/J)	.
=21	=21	=21
.	aq/	.
4GG\ 4G\)	32g/LLL	p
.	32f#/	.
.	32g/	.
.	32a/JJ	.
.	[8b/J	.
.	ccq/	.
4r	32b\LLL]	.
.	32a\	.
.	32b\	.
.	32cc\JJ	.
.	8dd\J	.
(32G\LLL	[2gg\	.
32F#\	.	.
32G\	.	.
32A\JJ	.	.
8B\J)	.	.
(32B\LLL	.	.
32A\	.	.
32B\	.	.
32c\JJ	.	.
8d\J)	.	.
=22	=22	=22
4CC/ 4C/	(12gg\L]	.
.	12ee\	.
.	[12cc\J	.
(4CC/ 4C/	12cc/L]	.
.	12e/	.
.	12cc/J	.
4DD/) 4D/	4g/)	.
(4DD/ 4D/	4f#/ 4a/	.
=23	=23	=23
.	aq/	.
4GG/) 4G/	32g/LLL	mf
.	32f#/	.
.	32g/	.
.	32a/JJ	.
.	8b/J	.
.	ccq/	.
4r	32b\LLL	.
.	32a\	.
.	32b\	.
.	32cc\JJ	.
.	8dd\J	.
(32G\LLL	[2gg\	.
32F#\	.	.
32G\	.	.
32A\JJ	.	.
8B\J)	.	.
(32B\LLL	.	.
32A\	.	.
32B\	.	.
32c\JJ	.	.
8d\J)	.	.
=24	=24	=24
4CC/ 4C/	(12gg\L]	.
.	12a\	.
.	[12ee\J	.
4CC/ 4C/	12ee\L]	.
.	12e\	.
.	12cc\J	.
4DD/ 4D/	4g/)	.
4DD/ 4D/	4f#/ (4a/	.
=25	=25	=25
1GG 1G	1g)	.
=26:|!|:	=26:|!|:	=26:|!|:
*>B	*>B	*>B
4GG/	4r	.
4g\	(12dd\L	p
.	12b-\	.
.	12ee-\J)	.
4g\	2cc\	.
4f#\	.	.
=27	=27	=27
4g\	4r	.
4g\	(12dd\L	.
.	12b-\	.
.	12ee-\J)	.
4g\	2cc\	.
4f#\	.	.
=28	=28	=28
4g\	4r	.
4e-\	(12ee-\L	mf
.	12b-\	.
.	12gg\J)	.
4e-\ 4f\	2a-\ 2ff\	.
4d\ 4f\	.	.
=29	=29	=29
4e-\ 4g\	4r	.
4e-\ 4g\	(12ee-\L	.
.	12b-\	.
.	12gg\J)	.
4e-\ 4f\	2a-\ 2ff\	.
[4d\ 4f\	.	.
=30	=30	=30
*^	*	*
2f/	4d\]	2a-\ 2ff\	.
.	2c\	.	.
4f/	.	2g\ 2ff\	.
4f/	4Bn\	.	.
*v	*v	*	*
=31	=31	=31
4c\	4ee-\	.
4F\ 4f\	(12dd\L	.
.	12ff\	.
.	12cc\J	.
4G\ 4f\	4b\	.
4A-\ 4f\	4cc\	.
=32	=32	=32
4G\ 4f\	12dd/L	.
.	12g/	.
.	12g/J)	p
4B\ 4f\	12g/L	.
.	12g/	.
.	12g/J	.
4c\ (4f\	12g/L	>
.	12g/	)
.	12g/J	)
4c\ 4e\)	12g/L	)
.	12g/	)
.	12g/J	)
=33	=33	=33
4r	12g/L	)
.	12g/	)
.	12g/J	)
(4B\ 4f\	12g/L	)
.	12g/	)
.	12g/J	]
4c\) 4f\	12g/L	>
.	12g/	)
.	12g/J	]
4c\ 4e\	12g/L	<
.	(12g/	(
.	12g#/J)	(
=34	=34	=34
.	(bq/	(
2F\ 2f\	(32a/LLL)	(
.	32g#/	(
.	32a/	(
.	32b/JJ	(
.	8cc/J)	(
.	(eeq/	(
.	(32dd\LLL)	(
.	32cc#\	(
.	32dd\	(
.	32ee\JJ	(
.	8ff\J)	(
*clefG2	*	*
(32f/LLL	[2aa\	(
32e/	.	(
32f/	.	(
32g/JJ	.	(
8a/J)	.	(
(32a/LLL	.	(
32g/	.	(
32a/	.	(
32b/JJ	.	(
8cc/J)	.	(
*clefF4	*	*
=35	=35	=35
4BBB/ 4BB/	12aa\L]	(
.	(12gg\	(
.	[12dd\J	(
4CC/ 4C/	12dd\L]	(
.	12ee\	(
.	[12g\J	(
(4FF/ 4F/	12g\L]	(
.	12a\	(
.	12dd\J	(
4GG/) 4G/	4b\)	(
=36	=36	=36
.	(ddq/	[
2CC/ 2C/	32cc\LLL)	mf
.	32b\	.
.	32cc\	.
.	32dd\JJ	.
.	8ee\J	.
.	(ffq/	.
.	(32ee\LLL)	.
.	32dd\	.
.	32ee\	.
.	32ff\JJ	.
.	8gg\J)	.
(32c\LLL	2cc\ [2ccc\	.
32B\	.	.
32c\	.	.
32d\JJ	.	.
8e\J)	.	.
(32e\LLL	.	.
32d\	.	.
32e\	.	.
32f\JJ	.	.
8g\J)	.	.
=37	=37	=37
4FF/ 4F/	12ccc\L]	.
.	(12aa\	.
.	[12ff\J	.
(4FF/ 4F/	12ff\L]	.
.	12dd\	.
.	12cc\J)	.
4GG/) 4G/	4cc\	.
4GG/ 4G/	4b\ 4dd\	.
=38	=38	=38
.	ddq/	.
2CC/ 2C/	(32cc\LLL	p
.	32b\	.
.	32cc\	.
.	32dd\JJ	.
.	8ee\J)	.
.	ffq/	.
.	(32ee\LLL	.
.	32dd\	.
.	32ee\	.
.	32ff\JJ	.
.	8gg\J)	.
(32c\LLL	2cc\ [2ccc\	.
32B\	.	.
32c\	.	.
32d\JJ	.	.
8e\J)	.	.
32e\LLL	.	.
32d\	.	.
32e\	.	.
32f\JJ	.	.
8g\J	.	.
=39	=39	=39
4FF/ 4F/	(12ccc\L]	.
.	12dd\	.
.	[12aa\J	.
4FF/ 4F/	12aa\L]	.
.	12ccc\	.
.	12cc\J)	.
4GG/ 4G/	(4cc\	.
4GG/ 4G/	4b\ 4dd\	.
=40	=40	=40
4CC/ 4C/	12cc\L)	mf
.	(12gg\	.
.	12ff\J	.
4FF/	12a\L	.
.	12dd\	.
.	12cc\J)	.
4GG/	4c/ 4e/	.
4GG/	4B/ (4d/	.
=41	=41	=41
1CC	1c)	.
==:|!	==:|!	==:|!
*-	*-	*-
!!!ENC: Craig Stuart Sapp
!!!END: 2008/01/22
